src/assets/filled/BagTimer.svg

<svg width="24" height="24" viewBox="0 0 24 24"  xmlns="http://www.w3.org/2000/svg">
<path d="M19.96 8.96039C19.29 8.22039 18.28 7.79039 16.88 7.64039V6.88039C16.88 5.51039 16.3 4.19039 15.28 3.27039C14.25 2.33039 12.91 1.89039 11.52 2.02039C9.12999 2.25039 7.11999 4.56039 7.11999 7.06039V7.64039C5.71999 7.79039 4.70999 8.22039 4.03999 8.96039C3.06999 10.0404 3.09999 11.4804 3.20999 12.4804L3.90999 18.0504C4.11999 20.0004 4.90999 22.0004 9.20999 22.0004H14.79C19.09 22.0004 19.88 20.0004 20.09 18.0604L20.79 12.4704C20.9 11.4804 20.93 10.0404 19.96 8.96039ZM11.66 3.41039C12.66 3.32039 13.61 3.63039 14.35 4.30039C15.08 4.96039 15.49 5.90039 15.49 6.88039V7.58039H8.50999V7.06039C8.50999 5.28039 9.97999 3.57039 11.66 3.41039ZM12 18.5804C9.90999 18.5804 8.20999 16.8804 8.20999 14.7904C8.20999 12.7004 9.90999 11.0004 12 11.0004C14.09 11.0004 15.79 12.7004 15.79 14.7904C15.79 16.8804 14.09 18.5804 12 18.5804Z" />
<path d="M10.9999 16.5801C10.7499 16.5801 10.4999 16.4501 10.3599 16.2201C10.1499 15.8701 10.2599 15.4001 10.6199 15.1901L11.5099 14.6601V13.5801C11.5099 13.1701 11.8499 12.8301 12.2599 12.8301C12.6699 12.8301 12.9999 13.1601 12.9999 13.5801V15.0801C12.9999 15.3401 12.8599 15.5901 12.6399 15.7201L11.3899 16.4701C11.2699 16.5401 11.1299 16.5801 10.9999 16.5801Z" />
</svg>

<?xml version="1.0" encoding="UTF-8"?>
<svg width="24" height="24" viewBox="0 0 24 24" xmlns="http://www.w3.org/2000/svg">
 <path d="m19.96 8.9604c-0.67-0.74-1.68-1.17-3.08-1.32v-0.76c0-1.37-0.58-2.69-1.6-3.61-1.03-0.94-2.37-1.38-3.76-1.25-2.39 0.23-4.4 2.54-4.4 5.04v0.58c-1.4 0.15-2.41 0.58-3.08 1.32-0.97 1.08-0.94 2.52-0.83 3.52l0.7 5.57c0.21 1.95 1 3.95 5.3 3.95h5.58c4.3 0 5.09-2 5.3-3.94l0.7-5.59c0.11-0.99 0.14-2.43-0.83-3.51zm-8.3-5.55c1-0.09 1.95 0.22 2.69 0.89 0.73 0.66 1.14 1.6 1.14 2.58v0.7h-6.98v-0.52c0-1.78 1.47-3.49 3.15-3.65zm0.34 15.17c-2.09 0-3.79-1.7-3.79-3.79s1.7-3.79 3.79-3.79c2.09 0 3.79 1.7 3.79 3.79s-1.7 3.79-3.79 3.79z"/>
 <path d="m11 16.58c-0.25 0-0.5-0.13-0.64-0.36-0.21-0.35-0.1-0.82 0.26-1.03l0.89-0.53v-1.08c0-0.41 0.34-0.75 0.75-0.75s0.74 0.33 0.74 0.75v1.5c0 0.26-0.14 0.51-0.36 0.64l-1.25 0.75c-0.12 0.07-0.26 0.11-0.39 0.11z"/>
</svg>
